X:1
T:Softly, As In Morning Sunrise
T:Softly, As In Morning Sunrise
T:Plunking
L:1/8
Q:1/4=90
M:2/4
K:G
V:1 treble transpose=-12 nm="Piano" snm="Pno."
V:1
 z4 | z4 | z4 | z4 | BG/A/ B2 | cd ef | BG/A/ B2 | cd ef | GE/F/ G2- | GB FA | G2 E2 | A2 F2 | %12
 BG/A/ B2 | cd ef | gf/e/ d2- | de Ac | BG/A/ B2 | z ^A B^c | z B ^c^d- | d4 | e2 B2 | %21
 z/ A/B/A/ BA | e2 G2 | z/ F/G/F/ GF | B2 E2 | z/ B/c/B/ GF | E4 | B4 | e2 B2 | z/ A/B/A/ BA | %30
 e2 G2 | z/ F/G/F/ GF | B2 E2 | z/ B/c/B/ GF | E4- | (3EFG (3ABc | d2 G2 | z/ d/e/d/ ed | d2 ^G2- | %39
 (3G^GA (3Bcd | e2 A2 | z/ e/f/e/ fe | f3 f | aa gf | e2 B2 | z/ A/B/A/ BA | e2 G2 | z/ F/G/F/ GF | %48
 B2 E2 | z/ B/c/B/ gf/b/ | e4- | e z z2 | z4 | z4 |] %54

